X:6529
T:The Big One
O:england
R:polka
C:Composed by Gavin Atkin
S:Copyright Gavin Atkin 1997
M:2/4
L:1/8
Q:150
K:D
de |: "D" .f2 .f.d | "A" ec .A2 | "Bm" Bd "A" ce | "G" Bd "F^m7" ce |
"D" .f2 fd | "A" ec .A2 | "Bm" Bd "A" ce | "G" .d2 "D" de |
"D" .f2 .f.d | "A" ec .A2 | "Bm" Bd "A" ce | "G" Bd "F^m7" ce |
"D" .f2 fd | "A" ec .A2 | "Bm" Bd "A" ce| "G" .d2 "D" de |
| "D" .f2 .f.d | "A" .e2 ec | "A" .e2 "E7" ^g2 | "A" aAde |
"D" .f2 .f.d .| "A" e2 "E7" e^g | "Bm" .bb "A" a>.b | "G" a=g "A7" fe |
"D" .f2 .f.d | "A" .e2 ec | "A" e2 "E7" ^g2 | "A" .aAde |
"D" .f2 .f.d | "A" .e2 "E7" e^g | "Bm" .bb "A" a>.b | "G" a=g "A7" fe :|
This file contains some of my own compositions.
You can find more abc tune files at http://home1.swipnet.se/~w-11382/abc.htm
If you want to play these tunes, feel free. However, if you want to
record them on tape, CD, sound file, video, for radio, for TV, etc,
please ask me for permission.
Last updated 5 May 1998.
(c) Copyright 1997-1998 Henrik Norbeck. This file:
- May be distributed freely (with restrictions below).
- May not be used for commercial purposes (such as printing a tune book to sell).
- This file (or parts of it) may not be made available on a web page for
download without permission from me.
- This copyright notice must be kept, except when e-mailing individual tunes.
- May be printed on paper for personal use.
- Questions? E-mail: henrik.norbeck@mailbox.swipnet.se


